!!!COM:	Martini, Johannes
!!!CDT:	~1440///-~1497//
!!!OTL:	O beate Sebastiane
!!!AGN:	Motet
!!!SCT:	Mar2079
!!!SCA:	Mar2079
!!!voices:	4
**kern	**kern	**kern	**kern
*staff4	*staff3	*staff2	*staff1
*Ivox	*Ivox	*Ivox	*Ivox
*I"Bassus	*I"Tenor	*I"Altus	*I"Superius
*I'B	*I'T	*I'A	*I'S
*>[A,B,C]	*>[A,B,C]	*>[A,B,C]	*>[A,B,C]
*>A	*>A	*>A	*>A
*clefF4	*clefGv2	*clefGv2	*clefG2
*k[b-]	*k[b-]	*k[b-]	*k[b-]
*M3/1	*M3/1	*M3/1	*M3/1
*met(O)	*met(O)	*met(O)	*met(O)
!!section: O beate Sebastianue
!!!OMD: O beate Sebastianue
=1-	=1-	=1-	=1-
1.G	0.r	1r	0.r
.	.	1r	.
2F\	.	.	.
2G\	.	[1G	.
[2B-\	.	.	.
=2	=2	=2	=2
2B-\]	0.r	2G/]	1r
2A\	.	2F/	.
2r	.	2G/	1.g
1G	.	1B-	.
2D\	.	2A/	2f/
=3	=3	=3	=3
2E\	0.r	2G/	2g/
1G	.	2.d\	1b-
.	.	4c\	.
2F\	.	2A/	1a
1G	.	1B-	.
.	.	.	2g/
=4	=4	=4	=4
0D	0.r	0A	0a
1r	.	1r	1r
=5	=5	=5	=5
0.D;	0.F;	0.A;	0.d;
=6	=6	=6	=6
0.C;	0.G;	0.c;	0.e;
=7	=7	=7	=7
0.BB-;	0.B-;	0.d;	0.f;
=8	=8	=8	=8
0.GG;	0.B-;	0.d;	0.g;
=9	=9	=9	=9
0.D;	0.A;	0.d;	0.f#;
=10	=10	=10	=10
0.r	0.r	0.r	0.r
=11	=11	=11	=11
0.GG;	0.G;	0.d;	0.g;
=12	=12	=12	=12
0.D;	0.A;	0.d;	0.f;
=13	=13	=13	=13
0.E-;	0.G;	0B-;	0.g;
.	.	1G	.
=14	=14	=14	=14
0.D;	0.F;	0d;	0a;
.	.	1D	2g/
.	.	.	2f/
=15	=15	=15	=15
0.C;	0.G;	0.E;	0.e;
=16	=16	=16	=16
0.BB-;l	0.B-;l	0.F;l	0.d;l
!!LO:LB:i:g=z
=17||	=17||	=17||	=17||
*>B	*>B	*>B	*>B
*clefF4	*clefGv2	*clefGv2	*clefG2
*k[b-]	*k[b-]	*k[b-]	*k[b-]
*M2/1	*M2/1	*M2/1	*M2/1
*met(C)	*met(C)	*met(C)	*met(C)
!!section: Miles beatissime
!!!OMD: Miles beatissime
1AA	0r	0r	0r
1BB-	.	.	.
=18	=18	=18	=18
1C	0r	1r	0r
1D	.	1A	.
=19	=19	=19	=19
1BB-	0r	1B-	1r
1AA	.	1c	1a
=20	=20	=20	=20
2GG/	1r	0r	1b-
1G	.	.	.
.	1A	.	1cc
2F\	.	.	.
=21	=21	=21	=21
2.G\	1B-	0r	0r
4F\	.	.	.
1E	1c	.	.
=22	=22	=22	=22
1D	0r	1d	0r
2.G\	.	2.B-\	.
4A\	.	4A/	.
=23	=23	=23	=23
4B-\	0r	2G/	2.dd\
4G\	.	.	.
2A\	.	2F/	.
.	.	.	4cc\
2.G\	.	1G	2.b-\
8F\L	.	.	8a/L
8E\J	.	.	8g/J
=24	=24	=24	=24
1D	1d	1A	1f
2.GG/	2.B-\	2G/	2.g/
.	.	[2d\	.
4AA/	4A/	.	4f/
=25	=25	=25	=25
4BB-/	2G/	4d\]	4g/
4GG/	.	4e\	4b-\
2AA/	2F/	2f\	2a/
2GG/	2G/	2B-\	2.d/
2G\	2B-\	[2d\	.
.	.	.	4e/
=26	=26	=26	=26
2D\	2A/	2d\]	4f/
.	.	.	4e/
2E\	2G/	2c\	1g
1D	1A	1d	.
.	.	.	2f#i/
=27	=27	=27	=27
1r	0G	0B-	0g
1G	.	.	.
=28	=28	=28	=28
1F	0r	1r	0r
1B-	.	1G	.
=29	=29	=29	=29
1c	0r	1F	0r
1d	.	1B-	.
=30	=30	=30	=30
2c\	0r	1c	0r
2A\	.	.	.
2B-\	.	2d\	.
[2G\	.	[2e-i\	.
=31	=31	=31	=31
4G\]	0r	2e-\]	1r
4F\	.	.	.
4E-i\	.	1d	.
4D\	.	.	.
1E-i	.	.	1g
.	.	2c\	.
=32	=32	=32	=32
1D	1r	1.d	1f
1r	1G	.	1b-
.	.	4c\	.
.	.	4B-\	.
=33	=33	=33	=33
1r	1F	1A	1cc
1G	1B-	1r	1dd
=34	=34	=34	=34
2A\	1c	2r	2cc\
2.F\	.	2.A/	1a
.	2d\	.	.
4E\	.	4B-\	.
[2C/	[2e\	[2c\	[2g/
=35	=35	=35	=35
4C/]	2e\]	4c\]	4g/]
4D\	.	8B-/L	4f/
.	.	8A/J	.
2BB-/	1d	4G/	4e/
.	.	4F/	4d/
1AA	.	1A	1e
.	2c#i\	.	.
=36	=36	=36	=36
0r	1d	0r	0d
.	1r	.	.
=37	=37	=37	=37
0r	1d	0r	0r
.	1c	.	.
=38	=38	=38	=38
1G	1B-	0r	0r
1F	1A	.	.
=39	=39	=39	=39
1E-	1c	0r	0r
1D	[1d	.	.
=40	=40	=40	=40
1F	2d\]	0r	0r
.	2c\	.	.
2G\	[1B-	.	.
[2D\	.	.	.
=41	=41	=41	=41
4D\]	2B-\]	0r	1r
4C/	.	.	.
2AA/	1A	.	.
1BB-	.	.	1dd
.	2G/	.	.
=42	=42	=42	=42
1AA	1A	1r	1cc
1r	1r	1g	1b-
=43	=43	=43	=43
0r	0r	1f	1a
.	.	1e-	1cc
=44	=44	=44	=44
0r	0r	1d	1.dd
.	.	1f	.
.	.	.	2cc\
=45	=45	=45	=45
0r	0r	2g\	1.b-
.	.	2.d\	.
.	.	4c\	.
.	.	2A/	[2a/
=46	=46	=46	=46
0r	0r	1B-	2a/]
.	.	.	2g/
.	.	[1A	1a
=47	=47	=47	=47
1.c	0r	1A]	0r
.	.	1r	.
2B-\	.	.	.
=48	=48	=48	=48
1A	0r	1.c	0r
2G\	.	.	.
[2G\	.	2B-\	.
=49	=49	=49	=49
2G\]	0r	1A	1.cc
2F#i\	.	.	.
1G	.	2G/	.
.	.	[2G/	2b-\
=50	=50	=50	=50
1r	1.c	2G/]	1a
.	.	2F/	.
1GG	.	2G/	2g/
.	2B-\	[2d\	[2g/
=51	=51	=51	=51
1D	1A	4d\]	2g/]
.	.	4c\	.
.	.	2d\	2f/
2E-\	2G/	2B-\	2g/
2G\	[2G/	2G/	[2d/
=52	=52	=52	=52
1D	2G/]	1A	2d/]
.	2F#i/	.	2.dd\
1G	[1G	2G/	.
.	.	.	4cc\
.	.	[2g\	[2b-\
=53	=53	=53	=53
2E\	2G/]	4g\]	2b-\]
.	.	4f\	.
2G\	2B-\	2.d\	4a/
.	.	.	4g/
1D	1A	.	2.f#i/
.	.	4c\	.
.	.	[2d\	.
.	.	.	4e/
=54	=54	=54	=54
1r	1G	4d\]	1g
.	.	4c\	.
.	.	4d\	.
.	.	4e-i\	.
[1D	1r	4d\	2r
.	.	4c\	.
.	.	[2d\	[2f/
=55	=55	=55	=55
0D_	0r	4d\]	4f/]
.	.	4B-\	4g/
.	.	1d	4a/
.	.	.	4b-\
.	.	.	4a/
.	.	.	4d/
.	.	4c\	[2g/
.	.	4B-\	.
=56	=56	=56	=56
1D]	0r	1A	2g/]
.	.	.	2f#i/
1r	.	1G	1g
=57	=57	=57	=57
*M3/1	*M3/1	*M3/1	*M3/1
*met(C.3/2)	*met(C.3/2)	*met(C.3/2)	*met(C.3/2)
!!LO:TX:Z=8:X=-40:t=MenCDot3Over2 (equivalent to MenCDot)
1D	1F	0.r	0.r
2E\	2G/	.	.
2C/	2A/	.	.
2.D\	2.B-\	.	.
4C/	4A/	.	.
=58	=58	=58	=58
2BB-/	1G	0.r	0.r
1AA	.	.	.
.	2F#i/	.	.
1.GG	[1.G	.	.
=59	=59	=59	=59
1r	1.G]	1d	0.r
2r	.	2e-i\	.
1D	2r	2d\	.
.	1r	2B-\	.
2E-i\	.	2c\	.
=60	=60	=60	=60
2D\	1d	2.B-\	1r
2BB-/	.	.	.
.	.	4c\	.
2C/	2e-i\	2A/	2r
2.BB-/	2d\	1B-	1dd
.	2B-\	.	.
4C/	.	.	.
2AA/	2c\	2r	2ee-i\
=61	=61	=61	=61
1BB-	1B-	1.f	2dd\
.	.	.	2b-\
2F\	2A/	.	2cc\
2G\	2B-\	2d\	2.b-\
1F	1c	1f	.
.	.	.	4g/
.	.	.	2a/
=62	=62	=62	=62
*M2/1	*M2/1	*M2/1	*M2/1
*met(C)	*met(C)	*met(C)	*met(C)
0BB-	0B-	0d	0b-
=63	=63	=63	=63
0E-	0G	1.e-	1r
.	.	.	[1b-
.	.	4d\	.
.	.	4c\	.
=64	=64	=64	=64
1E-i	1r	2.B-\	2b-\]
.	.	.	2g/
.	.	4c\	.
1D	1F	1d	1a
=65	=65	=65	=65
2E-i\	1G	2G/	2.g/
4D\	.	1B-	.
4C/	.	.	8f/L
.	.	.	8e/J
2.BB-/	1B-	.	1d
.	.	4A/	.
4C/	.	4G/	.
=66	=66	=66	=66
1D	1A	2.F/	1f
.	.	4G/	.
1C	1c	1A	1e
=67	=67	=67	=67
1BB-	1d	1D	1d
[1GG	1B-	2r	1g
.	.	2G/	.
=68	=68	=68	=68
1GG]	2.B-\	2.B-\	2r
.	.	.	2G/
.	4A/	4c\	.
1G	2.G/	1d	2.B-/
.	4F/	.	4c/
=69	=69	=69	=69
2G\	1B-	2G/	2.d/
4F\	.	2g\	.
4E\	.	.	4e/
2D\	[1B-	2f\	4f/
.	.	.	4e/
[2E-\	.	[2e-i\	[2g/
=70	=70	=70	=70
4E-\]	1B-]	2e-i\]	4g/]
4F\	.	.	4a/
2G\	.	2d\	4b-\
.	.	.	4a/
2F\	1A	2A/	4cc\
.	.	.	8b-\L
.	.	.	8cc\J
[2D\	.	[2d\	[2dd\
=71	=71	=71	=71
2D\]	1B-	0d_	4dd\]
.	.	.	4cc\
1G	.	.	1b-
.	1G	.	.
4F\	.	.	4a/
4E-i\	.	.	4g/
=72	=72	=72	=72
2D\	2A/	2d\]	4f/
.	.	.	4d/
2E-i\	2G/	2c\	1g
1D	1A	1d	.
.	.	.	2f#i/
=73	=73	=73	=73
0GGl	0Gl	0dl	0gl
!!LO:LB:i:g=z
=74||	=74||	=74||	=74||
*>C	*>C	*>C	*>C
*clefF4	*clefGv2	*clefGv2	*clefG2
*k[b-]	*k[b-]	*k[b-]	*k[b-]
*M2/1	*M2/1	*M2/1	*M2/1
*met(C)	*met(C)	*met(C)	*met(C)
!!section: Libera nos
!!!OMD: Libera nos
0B-	0r	0r	0r
=75	=75	=75	=75
1.c	0r	0r	0r
2A\	.	.	.
=76	=76	=76	=76
1B-	0r	0f	0r
1A	.	.	.
=77	=77	=77	=77
1G	0r	1.g	0r
2r	.	.	.
2G\	.	2e\	.
=78	=78	=78	=78
2F\	0r	1f	0r
1D	.	.	.
.	.	1e	.
2C/	.	.	.
=79	=79	=79	=79
2BB-/	0r	1d	0r
1D	.	.	.
.	.	2r	.
4C/	.	2d\	.
4BB-/	.	.	.
=80	=80	=80	=80
2AA/	0r	2c\	0r
2.C/	.	2.A/	.
4BB-/	.	4G/	.
[2GG/	.	[2B-\	.
=81	=81	=81	=81
4GG/]	0r	4B-\]	0r
4AA/	.	4A/	.
4BB-/	.	2G/	.
4C/	.	.	.
2.D\	.	2F/	.
.	.	2A/	.
4C/	.	.	.
=82	=82	=82	=82
2D\	0r	2D/	0r
2BB-/	.	1G	.
1AA	.	.	.
.	.	2F#i/	.
=83	=83	=83	=83
0GG	0B-	0G	0r
=84	=84	=84	=84
0r	1.c	0r	0r
.	2A/	.	.
=85	=85	=85	=85
0r	1B-	0r	0f
.	1A	.	.
=86	=86	=86	=86
0r	2.G/	0r	1.g
.	4A/	.	.
.	2B-\	.	.
.	2c\	.	2e/
=87	=87	=87	=87
0r	2A/	0r	1f
.	1d	.	.
.	.	.	1e
.	2c#i\	.	.
=88	=88	=88	=88
2.BB-/	1.d	0r	2.d/
4C/	.	.	4e/
2D\	.	.	2f/
[2E-i\	2G/	.	[2g/
=89	=89	=89	=89
2E-\]	2c\	0r	4g/]
.	.	.	4e/
2D\	2d\	.	1a
1G	1B-	.	.
.	.	.	2g/
=90	=90	=90	=90
2r	1A	2.F/	1a
1D	.	.	.
.	.	4G/	.
.	1r	2A/	1r
2G\	.	2B-\	.
=91	=91	=91	=91
2F\	0r	2A/	0r
2D\	.	1d	.
1E-i	.	.	.
.	.	2c\	.
=92	=92	=92	=92
0D	1r	1d	0r
.	1d	1B-	.
=93	=93	=93	=93
1G	2.B-\	1e-	0r
.	4c\	.	.
2F\	2A/	2d\	.
[2E-\	[2G/	[2c\	.
=94	=94	=94	=94
4E-\]	2G/]	4c\]	0r
4F\	.	4B-\	.
2D\	1F	1B-	.
1C	.	.	.
.	2E/	2A/	.
=95	=95	=95	=95
0BB-	1F	0B-	1r
.	2r	.	1dd
.	2F/	.	.
=96	=96	=96	=96
0r	2G/	0r	2b-\
.	2F/	.	2.cc\
.	2G/	.	.
.	.	.	4b-\
.	2F/	.	[2a/
=97	=97	=97	=97
0r	2G/	0r	4a/]
.	.	.	4g/
.	2B-\	.	1g
.	1A	.	.
.	.	.	2f#i/
=98	=98	=98	=98
*M3/1	*M3/1	*M3/1	*M3/1
*met(C.3/2)	*met(C.3/2)	*met(C.3/2)	*met(C.3/2)
!!LO:TX:Z=8:X=-40:t=MenCDot3Over2
1r	1.G	1r	1.g
2GG/	.	1r	.
1BB-	2r	.	2r
.	1r	2r	1r
2C/	.	2G/	.
=99	=99	=99	=99
1D	1r	1B-	1r
2C/	2G/	2c\	1r
2.BB-/	1B-	1d	.
.	.	.	2r
4GG/	.	.	.
2AA/	2c\	2c\	2a/
=100	=100	=100	=100
1GG	1d	2.B-\	1b-
.	.	4G/	.
1r	2c\	2A/	2cc\
.	2.B-\	1G	1dd
1r	.	.	.
.	4G/	.	.
.	2A/	2r	2cc\
=101	=101	=101	=101
1GG	1G	1G	2.b-\
.	.	.	4g/
2D\	1r	2F/	2a/
2E-i\	.	2G/	1g
1D	1r	1A	.
.	.	.	2f#i/
=102	=102	=102	=102
1r	0.r	1.G	1.g
2r	.	.	.
1G	.	2r	2r
.	.	1r	1r
2F\	.	.	.
=103	=103	=103	=103
1E-	0.r	0.r	1r
4D\	.	.	2r
4C/	.	.	.
2.BB-/	.	.	1dd
4C/	.	.	.
2AA/	.	.	2cc\
=104	=104	=104	=104
1.GG	0.r	1r	1b-
.	.	2r	4a/
.	.	.	4g/
2r	.	1d	2.f/
1r	.	.	.
.	.	.	4g/
.	.	2c\	2e/
=105	=105	=105	=105
0.r	0.r	1B-	1d
.	.	4A/	2c/
.	.	4G/	.
.	.	2.F/	2.d/
.	.	4G/	4B-/
.	.	2E/	2c/
=106	=106	=106	=106
*M2/1	*M2/1	*M2/1	*M2/1
*met(C|)	*met(C|)	*met(C|)	*met(C|)
0D	0A	1D	1d
.	.	1r	1r
=107	=107	=107	=107
1.F	1.A	1.d	0r
2E\	2G/	2c\	.
=108	=108	=108	=108
2F\	2A/	2d\	0r
2G\	2B-\	2e\	.
1A	1c	1f	.
=109	=109	=109	=109
1B-	1d	1g	0r
4B-\	4d\	4g\	.
4A\	4c\	4f\	.
4G\	4B-\	4e\	.
4F\	4A/	4d\	.
=110	=110	=110	=110
2E\	2G/	2c\	0r
1A	1c	1f	.
[2G\	[2B-\	[2e\	.
=111	=111	=111	=111
4G\]	2B-\]	2e\]	1r
4A\	.	.	.
2F\	1A	1d	.
1E	.	.	1g
.	2G/	2c#i\	.
=112	=112	=112	=112
[0D	[0A	0d	1f
.	.	.	1f
=113	=113	=113	=113
0D]	0A]	1r	1.f
.	.	1d	.
.	.	.	2g/
=114	=114	=114	=114
0r	0r	2c\	2a/
.	.	2.d\	1b-
.	.	4A/	.
.	.	2c\	[2a/
=115	=115	=115	=115
0r	0r	1B-	2a/]
.	.	.	2g/
.	.	1A	1a
=116	=116	=116	=116
1r	0r	0d	0f
1D	.	.	.
=117	=117	=117	=117
1D	0r	1r	0r
2.D\	.	1d	.
4E\	.	.	.
=118	=118	=118	=118
4F\	1r	1d	0r
4D\	.	.	.
1G	.	.	.
.	1d	[1d	.
[2GG/	.	.	.
=119	=119	=119	=119
4GG/]	1d	1d]	1r
4AA/	.	.	.
4BB-/	.	.	.
4GG/	.	.	.
1D	[1d	1r	1a
=120	=120	=120	=120
2r	1d]	0r	1a
1D	.	.	.
.	1r	.	1a
2C/	.	.	.
=121	=121	=121	=121
1BB-	0r	2r	0r
.	.	1d	.
1AA	.	.	.
.	.	2c\	.
=122	=122	=122	=122
2GG/	2r	1B-	0r
2G\	1d	.	.
2A\	.	1A	.
2F\	2c\	.	.
=123	=123	=123	=123
2r	1B-	1G	2r
2G\	.	.	1dd
2A\	1A	1F	.
2F\	.	.	2cc\
=124	=124	=124	=124
2r	1G	2G/	1b-
2G\	.	2B-\	.
2A\	2F/	2A/	2cc\
[2F\	[2c\	[2f\	[2a/
=125	=125	=125	=125
2F\]	4c\]	4f\]	2a/]
.	4G/	4e\	.
2G\	2B-\	2.d\	1g
1D	1A	.	.
.	.	4c\	.
.	.	2A/	2f#i/
=126	=126	=126	=126
1GG;	1G;	1B-;	1g;
1r	1r	1r	1r
=127	=127	=127	=127
0G;	0B-;	0d;	0g;
=128	=128	=128	=128
0D;	0A;	0d;	0f;
=129	=129	=129	=129
1.E-;	0G;	0B-;	1.g;
4D\	.	.	4f/
4C/	.	.	4e/
=130	=130	=130	=130
0BB-;	0B-;	0f;	0d;
=131	=131	=131	=131
0F;	0c;	[0f;	0a;
=132	=132	=132	=132
0BB-;	0d;	0f_	0b-;
=133	=133	=133	=133
0F;	0c;	0f]	0a;
=134	=134	=134	=134
0F;	0A;	0f;	0cc;
=135	=135	=135	=135
0G;	0G;	[0d;	0b-;
=136	=136	=136	=136
0D;	0A;	0d_	0a;
=137	=137	=137	=137
0GG;	0B-;	0d]	0g;
=138	=138	=138	=138
0D;	0A;	0d;	0f;
=139	=139	=139	=139
*M3/1	*M3/1	*M3/1	*M3/1
*met(O|)	*met(O|)	*met(O|)	*met(O|)
[0.D	0.A	[0.d	0.f
=140	=140	=140	=140
0D]	1.A	0d]	1.f
.	2B-\	.	2g/
1C	2c\	1e	2a/
.	2A/	.	2g/
=141	=141	=141	=141
1BB-	1d	1.f	1b-
0F	1.c	.	1.a
.	.	2e\	.
.	.	1f	.
.	2B-\	.	2g/
=142	=142	=142	=142
1G	2A/	1.d	1.g
.	2G/	.	.
0D	0A	.	.
.	.	2c\	4f#i/
.	.	.	4e/
.	.	1d	1f#i
=143	=143	=143	=143
0.GGl	0.Gl	0.dl	0.gl
==	==	==	==
*-	*-	*-	*-
!!!RDF**kern: l=long note in original notation
!!!RDF**kern: i=editorial accidental
!!!ENC:	Chris Gage 09-11-2014
!!!END:	2014/10/09/
!!!EED:	Jesse Rodin
!!!EEV:	2014/10/18/
!!!ONB:	Translated from MusicXML and edited on 2014/10/18/ by Craig Sapp
!!muse2ps: C^@{COM}^i2I150v85,85,85,150c200
